X:1
T:In Canso Strait
M:3/2
L:1/4
K:C
 E3/4- F/4 G A| G3 F3/4- D/4 C _B,| C3 C E G| c2- G G3/4- A/4 _B A|\
 G3 F G =B| c2- G G3/4- A/4 _B A| G3 E3/4- F/4 G A| G3 F3/4- E/4 C _B,|\
 C3||
